src/img/icons.svg

<svg aria-hidden="true" style="position: absolute; width: 0; height: 0; overflow: hidden;" version="1.1" xmlns="http://www.w3.org/2000/svg" xmlns:xlink="http://www.w3.org/1999/xlink">
<defs>
<symbol id="icon-download" viewBox="0 0 32 32">
<path d="M18 8l-4-4h-14v26h32v-22h-14zM16 27l-7-7h5v-8h4v8h5l-7 7z"></path>
</symbol>
<symbol id="icon-comment" viewBox="0 0 32 32">
<path d="M16 2c8.837 0 16 5.82 16 13s-7.163 13-16 13c-0.849 0-1.682-0.054-2.495-0.158-3.437 3.437-7.539 4.053-11.505 4.144v-0.841c2.142-1.049 4-2.961 4-5.145 0-0.305-0.024-0.604-0.068-0.897-3.619-2.383-5.932-6.024-5.932-10.103 0-7.18 7.163-13 16-13z"></path>
</symbol>
<symbol id="icon-eye" viewBox="0 0 32 32">
<path d="M16 6c-6.979 0-13.028 4.064-16 10 2.972 5.936 9.021 10 16 10s13.027-4.064 16-10c-2.972-5.936-9.021-10-16-10zM23.889 11.303c1.88 1.199 3.473 2.805 4.67 4.697-1.197 1.891-2.79 3.498-4.67 4.697-2.362 1.507-5.090 2.303-7.889 2.303s-5.527-0.796-7.889-2.303c-1.88-1.199-3.473-2.805-4.67-4.697 1.197-1.891 2.79-3.498 4.67-4.697 0.122-0.078 0.246-0.154 0.371-0.228-0.311 0.854-0.482 1.776-0.482 2.737 0 4.418 3.582 8 8 8s8-3.582 8-8c0-0.962-0.17-1.883-0.482-2.737 0.124 0.074 0.248 0.15 0.371 0.228v0zM16 13c0 1.657-1.343 3-3 3s-3-1.343-3-3 1.343-3 3-3 3 1.343 3 3z"></path>
</symbol>
<symbol id="icon-likes" viewBox="0 0 32 32">
<path d="M23.6 2c-3.363 0-6.258 2.736-7.599 5.594-1.342-2.858-4.237-5.594-7.601-5.594-4.637 0-8.4 3.764-8.4 8.401 0 9.433 9.516 11.906 16.001 21.232 6.13-9.268 15.999-12.1 15.999-21.232 0-4.637-3.763-8.401-8.4-8.401z"></path>
</symbol>
</defs>
</svg>

<svg xmlns="http://www.w3.org/2000/svg" aria-hidden="true" style="position:absolute;width:0;height:0;overflow:hidden"><defs><symbol id="icon-download" viewBox="0 0 32 32"><path d="m18 8-4-4H0v26h32V8H18zm-2 19-7-7h5v-8h4v8h5l-7 7z"/></symbol><symbol id="icon-comment" viewBox="0 0 32 32"><path d="M16 2c8.84 0 16 5.82 16 13s-7.16 13-16 13c-.85 0-1.68-.05-2.5-.16C10.07 31.28 5.97 31.9 2 32v-.85C4.14 30.1 6 28.18 6 26c0-.3-.02-.6-.07-.9C2.31 22.72 0 19.08 0 15 0 7.82 7.16 2 16 2z"/></symbol><symbol id="icon-eye" viewBox="0 0 32 32"><path d="M16 6A17.92 17.92 0 0 0 0 16c2.97 5.94 9.02 10 16 10s13.03-4.06 16-10A17.92 17.92 0 0 0 16 6zm7.89 5.3c1.88 1.2 3.47 2.8 4.67 4.7-1.2 1.9-2.8 3.5-4.67 4.7a14.64 14.64 0 0 1-15.78 0A15.21 15.21 0 0 1 3.44 16a15.22 15.22 0 0 1 5.04-4.92A7.98 7.98 0 0 0 16 21.8a8 8 0 0 0 7.52-10.73l.37.22zM16 13a3 3 0 1 1-6 0 3 3 0 0 1 6 0z"/></symbol><symbol id="icon-likes" viewBox="0 0 32 32"><path d="M23.6 2c-3.36 0-6.26 2.74-7.6 5.6C14.66 4.73 11.76 2 8.4 2A8.4 8.4 0 0 0 0 10.4c0 9.43 9.52 11.9 16 21.23 6.13-9.27 16-12.1 16-21.23A8.4 8.4 0 0 0 23.6 2z"/></symbol></defs></svg>
